packages/icons/src/svg/24/more_horizontal_24.svg

<svg xmlns="http://www.w3.org/2000/svg" width="24" height="24" fill="currentColor" viewBox="0 0 24 24"><path d="M18 10c1.1 0 2 .9 2 2s-.9 2-2 2-2-.9-2-2 .9-2 2-2Zm-6 4c-1.1 0-2-.9-2-2s.9-2 2-2 2 .9 2 2-.9 2-2 2Zm-6 0c-1.1 0-2-.9-2-2s.9-2 2-2 2 .9 2 2-.9 2-2 2Z"/></svg>

<?xml version="1.0" encoding="UTF-8"?>
<svg width="24px" height="24px" viewBox="0 0 24 24" version="1.1" xmlns="http://www.w3.org/2000/svg" xmlns:xlink="http://www.w3.org/1999/xlink">
    <!-- Generator: Sketch 50.2 (55047) - http://www.bohemiancoding.com/sketch -->
    <title>more_horizontal_24</title>
    <desc>Created with Sketch.</desc>
    <defs></defs>
    <g id="Page-2" stroke="none" stroke-width="1" fill="none" fill-rule="evenodd">
        <g id="more_horizontal_24">
            <polygon id="Bounds" points="24 0 0 0 0 24 24 24"></polygon>
            <path d="M18,10 C19.1,10 20,10.9 20,12 C20,13.1 19.1,14 18,14 C16.9,14 16,13.1 16,12 C16,10.9 16.9,10 18,10 L18,10 Z M12,14 C10.9,14 10,13.1 10,12 C10,10.9 10.9,10 12,10 C13.1,10 14,10.9 14,12 C14,13.1 13.1,14 12,14 L12,14 Z M6,14 C4.9,14 4,13.1 4,12 C4,10.9 4.9,10 6,10 C7.1,10 8,10.9 8,12 C8,13.1 7.1,14 6,14 L6,14 Z" id="Mask" fill="currentColor"></path>
        </g>
    </g>
</svg>
